flaticon/sport/rugby.svg

<svg xmlns="http://www.w3.org/2000/svg" width="32" height="32" viewBox="0 0 24 24">
    <path d="M 23.992188 2.277344 C 23.898438 1.007812 22.835938 0 21.542969 0 L 18.792969 0 C 8.429688 0 0 8.429688 0 18.792969 L 0 21.542969 C 0 22.453125 0.5 23.25 1.242188 23.675781 L 1.242188 23.695312 L 1.492188 23.800781 C 1.492188 23.800781 1.492188 23.800781 1.496094 23.800781 C 1.644531 23.867188 1.800781 23.917969 1.964844 23.949219 C 1.976562 23.953125 1.992188 23.953125 2.003906 23.957031 C 2.070312 23.96875 2.140625 23.980469 2.207031 23.988281 C 2.292969 23.996094 2.375 24 2.457031 24 L 5.207031 24 C 15.570312 24 24 15.570312 24 5.207031 L 24 2.289062 Z M 0.828125 18.792969 C 0.828125 8.886719 8.886719 0.828125 18.792969 0.828125 L 21.542969 0.828125 C 22.234375 0.828125 22.824219 1.261719 23.058594 1.871094 C 22.3125 2.023438 21.746094 2.683594 21.746094 3.476562 L 21.746094 3.78125 C 21.746094 13.6875 13.6875 21.746094 3.78125 21.746094 L 2.875 21.746094 C 2.203125 21.746094 1.625 22.152344 1.375 22.75 C 1.042969 22.453125 0.828125 22.023438 0.828125 21.542969 Z M 23.171875 5.207031 C 23.171875 15.113281 15.113281 23.171875 5.207031 23.171875 L 2.457031 23.171875 C 2.34375 23.171875 2.230469 23.160156 2.117188 23.136719 C 2.113281 23.132812 2.113281 23.132812 2.109375 23.132812 C 2.214844 22.808594 2.519531 22.574219 2.875 22.574219 L 3.78125 22.574219 C 14.144531 22.574219 22.574219 14.144531 22.574219 3.78125 L 22.574219 3.476562 C 22.574219 3.101562 22.828125 2.789062 23.171875 2.695312 Z M 23.171875 5.207031"/>
    <path d="M2.765625 20.453125C2.808594 20.46875 2.851562 20.472656 2.898438 20.472656 3.070312 20.472656 3.230469 20.363281 3.289062 20.191406 3.8125 18.625 4.375 17.179688 4.953125 15.894531 5.046875 15.6875 4.957031 15.441406 4.746094 15.347656 4.539062 15.253906 4.292969 15.34375 4.199219 15.554688 3.609375 16.863281 3.035156 18.335938 2.503906 19.929688 2.429688 20.144531 2.546875 20.378906 2.765625 20.453125zM6.097656 12.765625C6.164062 12.808594 6.238281 12.828125 6.3125 12.828125 6.453125 12.828125 6.589844 12.757812 6.667969 12.628906 9.992188 7.191406 14.402344 4.8125 19.996094 2.910156 20.210938 2.835938 20.328125 2.601562 20.253906 2.386719 20.179688 2.171875 19.945312 2.054688 19.730469 2.128906 13.964844 4.085938 9.417969 6.546875 5.960938 12.199219 5.84375 12.394531 5.902344 12.648438 6.097656 12.765625zM6.097656 12.765625"/>
</svg>

<svg xmlns="http://www.w3.org/2000/svg" width="32" height="32" viewBox="0 0 24 24">
    <path d="M23.992 2.277A2.462 2.462 0 0 0 21.543 0h-2.75C8.43 0 0 8.43 0 18.793v2.75c0 .91.5 1.707 1.242 2.133v.02l.25.105h.004c.149.066.305.117.469.148.012.004.027.004.039.008.066.012.137.023.203.031.086.008.168.012.25.012h2.75C15.57 24 24 15.57 24 5.207V2.289zM.828 18.793C.828 8.887 8.887.828 18.793.828h2.75c.691 0 1.281.434 1.516 1.043a1.642 1.642 0 0 0-1.313 1.606v.304c0 9.906-8.058 17.965-17.965 17.965h-.906c-.672 0-1.25.406-1.5 1.004a1.618 1.618 0 0 1-.547-1.207zM23.172 5.207c0 9.906-8.059 17.965-17.965 17.965h-2.75c-.113 0-.227-.012-.34-.035-.004-.004-.004-.004-.008-.004a.808.808 0 0 1 .766-.559h.906c10.364 0 18.793-8.43 18.793-18.793v-.304a.81.81 0 0 1 .598-.782zm0 0"/>
    <path d="M2.766 20.453a.414.414 0 0 0 .523-.262 46.346 46.346 0 0 1 1.664-4.296.412.412 0 0 0-.207-.547.412.412 0 0 0-.547.207 46.5 46.5 0 0 0-1.695 4.375.412.412 0 0 0 .262.523zm0 0M6.098 12.766a.414.414 0 0 0 .57-.137C9.992 7.19 14.402 4.813 19.996 2.91a.413.413 0 0 0-.266-.781C13.965 4.086 9.418 6.547 5.96 12.199a.412.412 0 0 0 .138.567zm0 0"/>
</svg>
